X: 95
T: No_24_First_Song_of_the_Mî'nîsîno'wuck.krn
%%abc-version 2.0
%%abcx-abcm2ps-target-version 5.9.1 (29 Sep 2008)
%%abc-creator hum2abc beta
%%abcx-conversion-date 2020/08/10 18:54:57
%%gracespace 0 6 6
%%humdrum-veritas 2719917773
%%humdrum-veritas-data 3869088004
%%linebreak <none>
%%barnumbers 0
L: 1/8
M: 2/4
%%staves {1 2}
V: 1 clef=bass
V: 2 clef=bass
K: D
[V:1] F/ [I:setbarnb 1]| 
[V:2] z/ | 
[V:1] F>F F3/E/ | 
[V:2] G,,G,, G,,G,, | 
[V:1] D2D3/E//E// ||  
[V:2] G,,G,, G,,G,, ||  
[V:1] [M:3/4]D>B,B,2B,2 | 
[V:2] [M:3/4]z6 | 
[V:1] B,2B,2B,3/B,/ ||  
[V:2] z6 ||  
[V:1] [M:2/4]A,>A, F,3/F,/ | 
[V:2] [M:2/4]z4 | 
[V:1] F,E, D,3/E,//E,// ||  
[V:2] z4 ||  
[V:1] [M:3/4]D,>B,,B,,2B,,2 | 
[V:2] [M:3/4]z6 | 
[V:1] B,,4B,,2 |]  
[V:2] z6 |]  


